public/images/social-media/vk.svg

<svg width="48" height="48" viewBox="0 0 48 48" fill="none" xmlns="http://www.w3.org/2000/svg">
<rect width="48" height="48" rx="24" fill="#7DA4E7" fill-opacity="0.2"/>
<path d="M33.9472 18.8675C33.9856 18.7417 34.0039 18.625 33.9989 18.5208C33.9864 18.2192 33.7789 18 33.2906 18H31.1089C30.5581 18 30.3039 18.3333 30.1556 18.6675C30.1556 18.6675 28.7956 21.4666 27.2282 23.3124C26.7198 23.8466 26.4615 23.8333 26.1865 23.8333C26.039 23.8333 25.6665 23.6549 25.6665 23.1658V18.845C25.6665 18.2667 25.5223 18 25.0565 18H21.1824C20.8432 18 20.6666 18.2667 20.6666 18.5342C20.6666 19.09 21.4149 19.2233 21.4999 20.7808V23.7999C21.4999 24.5332 21.3724 24.6666 21.0974 24.6666C20.3557 24.6666 18.8958 22.1666 17.9183 18.89C17.7066 18.245 17.495 18 16.9441 18H14.7417C14.1058 18 14 18.3117 14 18.645C14 19.2458 14.5 22.4941 17.2291 26.2291C19.2083 28.9374 21.8157 30.4998 24.124 30.4998C25.5223 30.4998 25.6657 30.144 25.6657 29.5882V27.1115C25.6665 26.4441 25.819 26.3332 26.264 26.3332C26.5815 26.3332 27.229 26.5416 28.479 27.9999C29.9206 29.6815 30.1823 30.4998 31.0089 30.4998H33.1906C33.6972 30.4998 33.9881 30.2873 33.9997 29.8748C34.0022 29.7698 33.9872 29.6523 33.9531 29.5215C33.7914 29.0415 33.0497 27.8682 32.1248 26.7499C31.6123 26.1307 31.1064 25.5174 30.8739 25.1841C30.7181 24.9666 30.6589 24.8132 30.6664 24.6666C30.6739 24.5124 30.7539 24.3657 30.8739 24.1608C30.8523 24.1608 33.6722 20.2016 33.9472 18.8675Z" fill="#7DA4E7"/>
</svg>

<svg xmlns="http://www.w3.org/2000/svg" width="48" height="48" fill="none"><rect width="48" height="48" fill="#7DA4E7" fill-opacity=".2" rx="24"/><path fill="#7DA4E7" d="M33.947 18.868q.059-.19.052-.347c-.013-.302-.22-.521-.708-.521h-2.182c-.55 0-.805.333-.953.668 0 0-1.36 2.799-2.928 4.644-.508.535-.767.521-1.042.521-.147 0-.52-.178-.52-.667v-4.321c0-.578-.144-.845-.61-.845h-3.874c-.339 0-.515.267-.515.534 0 .556.748.69.833 2.247V23.8c0 .733-.128.867-.403.867-.741 0-2.201-2.5-3.179-5.777-.211-.645-.423-.89-.974-.89h-2.202c-.636 0-.742.312-.742.645 0 .6.5 3.85 3.23 7.584 1.978 2.708 4.586 4.27 6.894 4.27 1.398 0 1.542-.355 1.542-.91v-2.477c0-.668.153-.779.598-.779.317 0 .965.209 2.215 1.667 1.442 1.681 1.703 2.5 2.53 2.5h2.182c.506 0 .797-.213.809-.625a1.3 1.3 0 0 0-.047-.354c-.162-.48-.903-1.653-1.828-2.771-.513-.62-1.019-1.233-1.251-1.566-.156-.217-.215-.37-.208-.517.008-.155.088-.301.208-.506-.022 0 2.798-3.96 3.073-5.294"/></svg>
